X: 20344
T: John Brosnan's
R: polka
M: 2/4
K: Gmajor
|:G2 Ge|dB Be|dB GA|BA AB|
G>F Ge|dB Be|dB AB|1 GD ED:|2 G2 Gd||
|:g2 fg/f/|ed Bd|ga ag|e3f|
g2 fg/f/|ed Be|dB AB|1 G2 Gd:|2 GABd||
|:g2 a2|b3a|g2 ef|g3d|
ef/e/ dB|ef/e/ dB|dB AB|1 ~G3 d:|2 GD ED||

